X: 48
T: Jenny's Chickens
O: trad Ireland
B: 100 Essential Irish Session Tunes p.12
R: reel
Z: 2007 John Chambers <jc:trillian.mit.edu>
M: C|
L: 1/8
K: Bdor
|: "Bm"f3g  fece | "Bm"fefa "A"eAce | "Bm"f2fg fece | "F#m"fgaf "A"eAce :|
|: "Bm"fBBA B3e  | "Bm"fBBc "A"eAce | "Bm"fBBA Bdce | "F#m"fgaf "A"eAce :|
|: "Bm"B2bB aBgB | "Bm"B2af "A"eAce | "Bm"B2bB aBgB | "F#m"fgaf "A"eAce :|

%%sep 2 1 500
%%sep 1 1 500

